images/frameworks/phalcon-logo.svg

<svg xmlns="http://www.w3.org/2000/svg" xmlns:xlink="http://www.w3.org/1999/xlink" viewBox="0 0 640 640" width="300" height="300"><defs><path d="M249.75 391.53l60.83-4.81 11.59-9.15-3.38-5.78-39.59 5.78-29.45 13.96z" id="a"/><path d="M411.01 554.72v8.67l-19.8-8.19-2.41 4.33 18.35 9.15 7.72 18.77-18.35-15.4h-3.86l3.86 47.18-23.17-26.96-1.93-27.44 10.62-23.59 28.97 13.48z" id="b"/><path d="M376.74 569.64v22.15L346.8 604.3l-18.35-32.73v-95.8l7.73-14.92 2.9 2.41 4.34 74.13 33.32 32.25z" id="c"/><path d="M447.22 473.37v9.14l-19.31-8.66-2.42 4.33 17.38 8.67 8.21 19.73-17.38-15.88h-3.86l3.38 46.69-25.11-28.88-.96-21.66 11.1-26.96 28.97 13.48z" id="d"/><path d="M411.01 489.73v17.81l-48.28 18.3-16.9-35.63-3.86-23.1 11.1-7.22 32.83-1.93 7.73 20.22 17.38 11.55z" id="e"/><path d="M346.8 409.34L299 396.83l-90.77 90.01v58.73l22.69 77.51v-40.92L285 450.74l61.8-41.4z" id="f"/><path d="M440.94 412.71c-3.79 3.15-22.78 18.87-56.97 47.18h-30.9l94.15-61.62h52.15c-31.16 7.7-50.64 12.52-58.43 14.44z" id="g"/><path d="M599.31 395.38l-27.52 14.45-102.36-41.88-2.41-28.41 56.97 3.85 52.15 14.93 23.17 37.06z" id="h"/><path d="M566.48 393.94l-.96-1.44 10.14-7.71 14.48 8.19-.97 1.92-13.51-7.7-9.18 6.74z" id="i"/><path d="M460.26 325.58v63.06l-42.01-15.88-82.08-41.88 14.49-32.74 109.6 27.44z" id="j"/><path d="M438.05 260.6l1.45-45.25 47.8 93.87-49.25-48.62z" id="k"/><path d="M439.98 201.39L207.74 3.06l34.28 94.35 135.19 129.97 92.22 100.13-29.45-126.12z" id="l"/><path d="M288.86 196.09l88.36 31.29L196.64 53.12l7.73 46.69 84.49 96.28z" id="m"/><path d="M181.19 229.79l76.29 75.09-81.12-24.06-21.24-14.45-68.08-62.09 94.15 25.51z" id="n"/><path d="M333.75 366.02l-90.28-8.18-71.46-38.51 163.68 30.8-1.94 15.89z" id="o"/><path d="M273.4 379.98l-55.52-17.81 119.26 4.33 116.36 9.63 13.52 25.03-28.97-5.29-63.25-5.78-45.87-17.33-19.31 10.59-36.22-3.37z" id="p"/><path d="M326.04 325.58l92.21 47.18-84.49-6.74-107.67-32.25-98.01-68.36 197.96 60.17z" id="q"/><path d="M187.95 259.63l69.52 45.25 78.7 26 14.49-32.74L53.24 120.51l55.04 77.99 79.67 61.13z" id="r"/><path d="M127.11 171.06l223.55 127.08 118.77 29.37-92.22-100.13L40.69 53.12l86.42 117.94z" id="s"/><path d="M460.26 325.58l9.17 1.93v1.92l54.56 13.96-47.31 6.74 37.66 15.89-37.66.96 59.38 23.59 35.73 19.25 1.93 8.19-56.49-19.74h-50.21l-6.76-10.11v-62.58z" id="t"/><path d="M584.83 440.15h-14.97l6.76-11.55-4.83-18.77 27.52-14.45v32.26l-14.48 12.51z" id="u"/><path d="M289.82 557.61l-2.41 3.37 7.73 77.02-49.25-93.39 42-99.16 86.91-55.36 72.43 7.7v.48l-118.78 77.5-10.14-14.92-39.11 83.28 10.62 13.48z" id="v"/><path d="M208.22 494.07l-36.21 42.84 12.55-46.69 37.66-51.51 106.71-65.95 45.86 17.33-166.57 103.98z" id="w"/><path d="M328.45 592.75l14.97 37.07-64.22-85.69 39.11-83.28 10.14 14.92v116.98z" id="x"/><path d="M164.77 480.59l30.9-41.4-30.9 25.03v16.37z" id="y"/><path d="M201.95 602.86l-11.59-7.22v-39.96l6.28 14.92 5.31 32.26z" id="z"/></defs><use xlink:href="#a" fill="#acd2b4"/><use xlink:href="#a" fill-opacity="0" stroke="#000" stroke-opacity="0"/><use xlink:href="#b" fill="#3a3a3a"/><use xlink:href="#b" fill-opacity="0" stroke="#000" stroke-opacity="0"/><use xlink:href="#c" fill="#8fc19a"/><use xlink:href="#c" fill-opacity="0" stroke="#000" stroke-opacity="0"/><use xlink:href="#d" fill="#3a3a3a"/><use xlink:href="#d" fill-opacity="0" stroke="#000" stroke-opacity="0"/><use xlink:href="#e" fill="#678a6f"/><use xlink:href="#e" fill-opacity="0" stroke="#000" stroke-opacity="0"/><use xlink:href="#f" fill="#3a3a3a"/><use xlink:href="#f" fill-opacity="0" stroke="#000" stroke-opacity="0"/><use xlink:href="#g" fill="#3a3a3a"/><use xlink:href="#g" fill-opacity="0" stroke="#000" stroke-opacity="0"/><use xlink:href="#h" fill="#79a281"/><use xlink:href="#h" fill-opacity="0" stroke="#000" stroke-opacity="0"/><use xlink:href="#i" fill="#3a3a3a"/><use xlink:href="#i" fill-opacity="0" stroke="#000" stroke-opacity="0"/><use xlink:href="#j" fill="#8fc19a"/><use xlink:href="#j" fill-opacity="0" stroke="#000" stroke-opacity="0"/><use xlink:href="#k" fill="#7aa383"/><use xlink:href="#k" fill-opacity="0" stroke="#000" stroke-opacity="0"/><use xlink:href="#l" fill="#cce2d2"/><use xlink:href="#l" fill-opacity="0" stroke="#000" stroke-opacity="0"/><use xlink:href="#m" fill="#acd2b4"/><use xlink:href="#m" fill-opacity="0" stroke="#000" stroke-opacity="0"/><g><use xlink:href="#n" fill="#393839"/><use xlink:href="#n" fill-opacity="0" stroke="#000" stroke-opacity="0"/></g><g><use xlink:href="#o" fill="#acd2b4"/><use xlink:href="#o" fill-opacity="0" stroke="#000" stroke-opacity="0"/></g><g><use xlink:href="#p" fill="#678a6f"/><use xlink:href="#p" fill-opacity="0" stroke="#000" stroke-opacity="0"/></g><g><use xlink:href="#q" fill="#cce1d1"/><use xlink:href="#q" fill-opacity="0" stroke="#000" stroke-opacity="0"/></g><g><use xlink:href="#r" fill="#78a381"/><use xlink:href="#r" fill-opacity="0" stroke="#000" stroke-opacity="0"/></g><g><use xlink:href="#s" fill="#393839"/><use xlink:href="#s" fill-opacity="0" stroke="#000" stroke-opacity="0"/></g><g><use xlink:href="#t" fill="#cce1d1"/><use xlink:href="#t" fill-opacity="0" stroke="#000" stroke-opacity="0"/></g><g><use xlink:href="#u" fill="#3a3a3a"/><use xlink:href="#u" fill-opacity="0" stroke="#000" stroke-opacity="0"/></g><g><use xlink:href="#v" fill="#cde3d2"/><use xlink:href="#v" fill-opacity="0" stroke="#000" stroke-opacity="0"/></g><g><use xlink:href="#w" fill="#8fc19a"/><use xlink:href="#w" fill-opacity="0" stroke="#000" stroke-opacity="0"/></g><g><use xlink:href="#x" fill="#78a381"/><use xlink:href="#x" fill-opacity="0" stroke="#000" stroke-opacity="0"/></g><g><use xlink:href="#y" fill="#3a3a3a"/><use xlink:href="#y" fill-opacity="0" stroke="#000" stroke-opacity="0"/></g><g><use xlink:href="#z" fill="#678a6f"/><use xlink:href="#z" fill-opacity="0" stroke="#000" stroke-opacity="0"/></g></svg>

<?xml version="1.0" encoding="UTF-8" standalone="no"?>
<!DOCTYPE svg PUBLIC "-//W3C//DTD SVG 1.1//EN" "http://www.w3.org/Graphics/SVG/1.1/DTD/svg11.dtd">
<svg version="1.1" xmlns="http://www.w3.org/2000/svg" xmlns:xlink="http://www.w3.org/1999/xlink" preserveAspectRatio="xMidYMid meet" viewBox="0 0 640 640" width="300" height="300"><defs><path d="M249.75 391.53L310.58 386.72L322.17 377.57L318.79 371.79L279.2 377.57L249.75 391.53Z" id="b1u95CLJn"></path><path d="M411.01 554.72L411.01 563.39L391.21 555.2L388.8 559.53L407.15 568.68L414.87 587.45L396.52 572.05L392.66 572.05L396.52 619.23L373.35 592.27L371.42 564.83L382.04 541.24L411.01 554.72Z" id="g2iLLoVoTF"></path><path d="M376.74 569.64L376.74 591.79L346.8 604.3L328.45 571.57L328.45 475.77L336.18 460.85L339.08 463.26L343.42 537.39L376.74 569.64Z" id="aJMxVzznB"></path><path d="M447.22 473.37L447.22 482.51L427.91 473.85L425.49 478.18L442.87 486.85L451.08 506.58L433.7 490.7L429.84 490.7L433.22 537.39L408.11 508.51L407.15 486.85L418.25 459.89L447.22 473.37Z" id="aqNjS0d0Q"></path><path d="M411.01 489.73L411.01 507.54L362.73 525.84L345.83 490.21L341.97 467.11L353.07 459.89L385.9 457.96L393.63 478.18L411.01 489.73Z" id="a1jE6UJvJT"></path><path d="M346.8 409.34L299 396.83L208.23 486.84L208.23 545.57L230.92 623.08L230.92 582.16L285 450.74L346.8 409.34Z" id="bdBVy8m7N"></path><path d="M440.94 412.71C437.15 415.86 418.16 431.58 383.97 459.89L353.07 459.89L447.22 398.27L499.37 398.27C468.21 405.97 448.73 410.79 440.94 412.71Z" id="b13GjMs3GR"></path><path d="M599.31 395.38L571.79 409.83L469.43 367.95L467.02 339.54L523.99 343.39L576.14 358.32L599.31 395.38Z" id="aDwOfE61t"></path><path d="M566.48 393.94L565.52 392.5L575.66 384.79L590.14 392.98L589.17 394.9L575.66 387.2L566.48 393.94Z" id="daHWHmJsZ"></path><path d="M460.26 325.58L460.26 388.64L418.25 372.76L336.17 330.88L350.66 298.14L460.26 325.58Z" id="f1iRMXzXWf"></path><path d="M438.05 260.6L439.5 215.35L487.3 309.22L438.05 260.6Z" id="b1AN1ujIkA"></path><path d="M439.98 201.39L207.74 3.06L242.02 97.41L377.21 227.38L469.43 327.51L439.98 201.39Z" id="dWzYropmJ"></path><path d="M288.86 196.09L377.22 227.38L196.64 53.12L204.37 99.81L288.86 196.09Z" id="a1pkgOZ1Y"></path><path d="M181.19 229.79L257.48 304.88L176.36 280.82L155.12 266.37L87.04 204.28L181.19 229.79Z" id="ck35CBwbw"></path><path d="M333.75 366.02L243.47 357.84L172.01 319.33L335.69 350.13L333.75 366.02Z" id="a25LzutC90"></path><path d="M273.4 379.98L217.88 362.17L337.14 366.5L453.5 376.13L467.02 401.16L438.05 395.87L374.8 390.09L328.93 372.76L309.62 383.35L273.4 379.98Z" id="hPyDh6H2a"></path><path d="M326.04 325.58L418.25 372.76L333.76 366.02L226.09 333.77L128.08 265.41L326.04 325.58Z" id="d5HqPpEYAq"></path><path d="M187.95 259.63L257.47 304.88L336.17 330.88L350.66 298.14L53.24 120.51L108.28 198.5L187.95 259.63Z" id="c4nOGQUcXP"></path><path d="M127.11 171.06L350.66 298.14L469.43 327.51L377.21 227.38L40.69 53.12L127.11 171.06Z" id="a7rFc5m3x"></path><path d="M460.26 325.58L469.43 327.51L469.43 329.43L523.99 343.39L476.68 350.13L514.34 366.02L476.68 366.98L536.06 390.57L571.79 409.82L573.72 418.01L517.23 398.27L467.02 398.27L460.26 388.16L460.26 325.58Z" id="c1T6prhUH3"></path><path d="M584.83 440.15L569.86 440.15L576.62 428.6L571.79 409.83L599.31 395.38L599.31 427.64L584.83 440.15Z" id="aziXPXRCD"></path><path d="M289.82 557.61L287.41 560.98L295.14 638L245.89 544.61L287.89 445.45L374.8 390.09L447.23 397.79L447.23 398.27L328.45 475.77L318.31 460.85L279.2 544.13L289.82 557.61Z" id="bwYJwnRb"></path><path d="M208.22 494.07L172.01 536.91L184.56 490.22L222.22 438.71L328.93 372.76L374.79 390.09L208.22 494.07Z" id="a6adN36tt"></path><path d="M328.45 592.75L343.42 629.82L279.2 544.13L318.31 460.85L328.45 475.77L328.45 592.75Z" id="aUK5ox44n"></path><path d="M164.77 480.59L195.67 439.19L164.77 464.22L164.77 480.59Z" id="f7BifxVlT"></path><path d="M201.95 602.86L190.36 595.64L190.36 555.68L196.64 570.6L201.95 602.86Z" id="dFynJrcyC"></path></defs><g><g><g><use xlink:href="#b1u95CLJn" opacity="1" fill="#acd2b4" fill-opacity="1"></use><g><use xlink:href="#b1u95CLJn" opacity="1" fill-opacity="0" stroke="#000000" stroke-width="1" stroke-opacity="0"></use></g></g><g><use xlink:href="#g2iLLoVoTF" opacity="1" fill="#3a3a3a" fill-opacity="1"></use><g><use xlink:href="#g2iLLoVoTF" opacity="1" fill-opacity="0" stroke="#000000" stroke-width="1" stroke-opacity="0"></use></g></g><g><use xlink:href="#aJMxVzznB" opacity="1" fill="#8fc19a" fill-opacity="1"></use><g><use xlink:href="#aJMxVzznB" opacity="1" fill-opacity="0" stroke="#000000" stroke-width="1" stroke-opacity="0"></use></g></g><g><use xlink:href="#aqNjS0d0Q" opacity="1" fill="#3a3a3a" fill-opacity="1"></use><g><use xlink:href="#aqNjS0d0Q" opacity="1" fill-opacity="0" stroke="#000000" stroke-width="1" stroke-opacity="0"></use></g></g><g><use xlink:href="#a1jE6UJvJT" opacity="1" fill="#678a6f" fill-opacity="1"></use><g><use xlink:href="#a1jE6UJvJT" opacity="1" fill-opacity="0" stroke="#000000" stroke-width="1" stroke-opacity="0"></use></g></g><g><use xlink:href="#bdBVy8m7N" opacity="1" fill="#3a3a3a" fill-opacity="1"></use><g><use xlink:href="#bdBVy8m7N" opacity="1" fill-opacity="0" stroke="#000000" stroke-width="1" stroke-opacity="0"></use></g></g><g><use xlink:href="#b13GjMs3GR" opacity="1" fill="#3a3a3a" fill-opacity="1"></use><g><use xlink:href="#b13GjMs3GR" opacity="1" fill-opacity="0" stroke="#000000" stroke-width="1" stroke-opacity="0"></use></g></g><g><use xlink:href="#aDwOfE61t" opacity="1" fill="#79a281" fill-opacity="1"></use><g><use xlink:href="#aDwOfE61t" opacity="1" fill-opacity="0" stroke="#000000" stroke-width="1" stroke-opacity="0"></use></g></g><g><use xlink:href="#daHWHmJsZ" opacity="1" fill="#3a3a3a" fill-opacity="1"></use><g><use xlink:href="#daHWHmJsZ" opacity="1" fill-opacity="0" stroke="#000000" stroke-width="1" stroke-opacity="0"></use></g></g><g><use xlink:href="#f1iRMXzXWf" opacity="1" fill="#8fc19a" fill-opacity="1"></use><g><use xlink:href="#f1iRMXzXWf" opacity="1" fill-opacity="0" stroke="#000000" stroke-width="1" stroke-opacity="0"></use></g></g><g><use xlink:href="#b1AN1ujIkA" opacity="1" fill="#7aa383" fill-opacity="1"></use><g><use xlink:href="#b1AN1ujIkA" opacity="1" fill-opacity="0" stroke="#000000" stroke-width="1" stroke-opacity="0"></use></g></g><g><use xlink:href="#dWzYropmJ" opacity="1" fill="#cce2d2" fill-opacity="1"></use><g><use xlink:href="#dWzYropmJ" opacity="1" fill-opacity="0" stroke="#000000" stroke-width="1" stroke-opacity="0"></use></g></g><g><use xlink:href="#a1pkgOZ1Y" opacity="1" fill="#acd2b4" fill-opacity="1"></use><g><use xlink:href="#a1pkgOZ1Y" opacity="1" fill-opacity="0" stroke="#000000" stroke-width="1" stroke-opacity="0"></use></g></g><g><use xlink:href="#ck35CBwbw" opacity="1" fill="#393839" fill-opacity="1"></use><g><use xlink:href="#ck35CBwbw" opacity="1" fill-opacity="0" stroke="#000000" stroke-width="1" stroke-opacity="0"></use></g></g><g><use xlink:href="#a25LzutC90" opacity="1" fill="#acd2b4" fill-opacity="1"></use><g><use xlink:href="#a25LzutC90" opacity="1" fill-opacity="0" stroke="#000000" stroke-width="1" stroke-opacity="0"></use></g></g><g><use xlink:href="#hPyDh6H2a" opacity="1" fill="#678a6f" fill-opacity="1"></use><g><use xlink:href="#hPyDh6H2a" opacity="1" fill-opacity="0" stroke="#000000" stroke-width="1" stroke-opacity="0"></use></g></g><g><use xlink:href="#d5HqPpEYAq" opacity="1" fill="#cce1d1" fill-opacity="1"></use><g><use xlink:href="#d5HqPpEYAq" opacity="1" fill-opacity="0" stroke="#000000" stroke-width="1" stroke-opacity="0"></use></g></g><g><use xlink:href="#c4nOGQUcXP" opacity="1" fill="#78a381" fill-opacity="1"></use><g><use xlink:href="#c4nOGQUcXP" opacity="1" fill-opacity="0" stroke="#000000" stroke-width="1" stroke-opacity="0"></use></g></g><g><use xlink:href="#a7rFc5m3x" opacity="1" fill="#393839" fill-opacity="1"></use><g><use xlink:href="#a7rFc5m3x" opacity="1" fill-opacity="0" stroke="#000000" stroke-width="1" stroke-opacity="0"></use></g></g><g><use xlink:href="#c1T6prhUH3" opacity="1" fill="#cce1d1" fill-opacity="1"></use><g><use xlink:href="#c1T6prhUH3" opacity="1" fill-opacity="0" stroke="#000000" stroke-width="1" stroke-opacity="0"></use></g></g><g><use xlink:href="#aziXPXRCD" opacity="1" fill="#3a3a3a" fill-opacity="1"></use><g><use xlink:href="#aziXPXRCD" opacity="1" fill-opacity="0" stroke="#000000" stroke-width="1" stroke-opacity="0"></use></g></g><g><use xlink:href="#bwYJwnRb" opacity="1" fill="#cde3d2" fill-opacity="1"></use><g><use xlink:href="#bwYJwnRb" opacity="1" fill-opacity="0" stroke="#000000" stroke-width="1" stroke-opacity="0"></use></g></g><g><use xlink:href="#a6adN36tt" opacity="1" fill="#8fc19a" fill-opacity="1"></use><g><use xlink:href="#a6adN36tt" opacity="1" fill-opacity="0" stroke="#000000" stroke-width="1" stroke-opacity="0"></use></g></g><g><use xlink:href="#aUK5ox44n" opacity="1" fill="#78a381" fill-opacity="1"></use><g><use xlink:href="#aUK5ox44n" opacity="1" fill-opacity="0" stroke="#000000" stroke-width="1" stroke-opacity="0"></use></g></g><g><use xlink:href="#f7BifxVlT" opacity="1" fill="#3a3a3a" fill-opacity="1"></use><g><use xlink:href="#f7BifxVlT" opacity="1" fill-opacity="0" stroke="#000000" stroke-width="1" stroke-opacity="0"></use></g></g><g><use xlink:href="#dFynJrcyC" opacity="1" fill="#678a6f" fill-opacity="1"></use><g><use xlink:href="#dFynJrcyC" opacity="1" fill-opacity="0" stroke="#000000" stroke-width="1" stroke-opacity="0"></use></g></g></g></g></svg>
